X:10
T:T006- The Reel of Harden
S:Oswald's Caledonian Pocket Companion
Q:1/4=120
L:1/8
M:9/8
K:Am
B2G GGG Bdg|B2G GGG cAF|~B2G GGG gde|f2F (ABcA)f2A::\
g2dg2dgdB|g2dgdef2A|g2d~e2d Bde|f2F (A/B/c)Bf2A:|]

x:11
T:T007- The Scots Wriggle
S:Oswald's Caledonian Pocket Companion
Q:1/4=120
L:1/8
M:9/8
K:D mixolydian
G2c~B2G (B/c/d)B|G2c~B2G efg|G2d~B2G dBG|F2A AFD (F/G/A)F|\
G2gg2G B/c/dB|G2gg2e (f/g/a)f|gfe dcB cde|~F2A AFD (F/G/A)F::\
G3 BGB (A/B/cA)|G3 BGB (A/B/c)A|G3 BGB (A/B/c)A|\
(B/c/d)B gdB AFD:|]

